public/img/instagram.svg

<svg width="39" height="39" viewBox="0 0 39 39" fill="none" xmlns="http://www.w3.org/2000/svg">
<g clip-path="url(#clip0_475_1858)">
<path d="M6.78948 0.135216C3.53008 0.630454 0.642862 3.34301 0.180456 6.6521C-0.180446 9.26335 0.135343 12.1335 0.135343 14.7785V23.3664C0.124065 26.124 4.88991e-06 28.9153 0.124065 31.6729C0.203012 33.4512 1.02632 35.1508 2.24437 36.4452C5.41354 39.8105 10.4887 38.8876 14.6617 38.8876C20.1993 38.8876 25.7932 39.124 31.3196 38.8876C34.7368 38.7413 37.8722 36.3101 38.5038 32.8885C38.9098 30.6599 38.6729 28.2287 38.7068 25.9664C38.7519 23.1525 38.797 20.3499 38.8421 17.5361C38.8872 14.7222 38.9323 11.9196 38.9774 9.10578C39.0113 7.11357 39.1353 5.20015 38.0752 3.41054C35.5827 -0.83275 30.1917 0.0789387 26.0526 0.0789387H7.16166C5.35715 0.0789387 5.35715 2.87028 7.16166 2.87028H28.5451C29.9436 2.87028 31.4887 2.67894 32.8759 2.94907C37.3421 3.80448 36.1805 9.19582 36.1241 12.4711C36.0451 17.2434 35.9774 22.027 35.8985 26.7993C35.8647 28.6789 36.203 30.9413 35.6617 32.7534C35.188 34.3517 33.9135 35.4434 32.3459 35.9049C31.094 36.2651 29.3346 36.085 27.7105 36.085H9.94737C8.797 36.085 7.53384 36.2426 6.43985 35.8824C4.99625 35.4097 3.81203 34.3292 3.23685 32.9222C2.57143 31.2902 2.93234 29.2417 2.93234 27.5084C2.93234 22.1508 2.93234 16.7932 2.93234 11.4469C2.93234 9.2521 2.49249 6.71963 3.91354 4.86249C4.79324 3.70318 6.12406 3.03911 7.54512 2.82526C9.31579 2.55513 8.56015 -0.134914 6.80076 0.135216H6.78948Z" fill="#FBF5EC"/>
<path d="M19.6128 27.8794C24.2034 27.8794 27.9248 24.226 27.9248 19.7193C27.9248 15.2125 24.2034 11.5591 19.6128 11.5591C15.0222 11.5591 11.3008 15.2125 11.3008 19.7193C11.3008 24.226 15.0222 27.8794 19.6128 27.8794Z" stroke="#FBF5EC" stroke-width="2.58" stroke-miterlimit="10"/>
<path d="M30.7546 11.2063C32.1779 11.1122 33.2505 9.81403 33.1505 8.3068C33.0504 6.79957 31.8155 5.65399 30.3923 5.74809C28.969 5.84218 27.8963 7.14031 27.9964 8.64754C28.0964 10.1548 29.3313 11.3003 30.7546 11.2063Z" fill="#FBF5EC"/>
</g>
<defs>
<clipPath id="clip0_475_1858">
<rect width="39" height="39" fill="white"/>
</clipPath>
</defs>
</svg>

<svg width="39" height="39" fill="none" xmlns="http://www.w3.org/2000/svg"><g clip-path="url(#a)"><path d="M6.79.135C3.53.63.642 3.343.18 6.652-.18 9.263.135 12.133.135 14.78v8.587c-.01 2.758-.135 5.55-.01 8.307.078 1.778.901 3.478 2.12 4.772 3.169 3.365 8.244 2.443 12.417 2.443 5.537 0 11.131.236 16.658 0 3.417-.147 6.552-2.578 7.184-6 .406-2.228.169-4.66.203-6.922l.135-8.43.135-8.43c.034-1.992.158-3.906-.902-5.695C35.583-.833 30.192.079 26.053.079H7.162c-1.805 0-1.805 2.791 0 2.791h21.383c1.399 0 2.944-.191 4.33.08 4.467.854 3.306 6.246 3.25 9.521-.08 4.772-.148 9.556-.227 14.328-.033 1.88.305 4.142-.236 5.954-.474 1.599-1.748 2.69-3.316 3.152-1.252.36-3.011.18-4.635.18H9.947c-1.15 0-2.413.158-3.507-.203a5.21 5.21 0 0 1-3.203-2.96c-.666-1.632-.305-3.68-.305-5.414V11.447c0-2.195-.44-4.727.982-6.585.88-1.159 2.21-1.823 3.631-2.037 1.77-.27 1.015-2.96-.744-2.69h-.012Z" fill="#FBF5EC"/><path d="M19.613 27.88c4.59 0 8.312-3.654 8.312-8.16 0-4.507-3.722-8.16-8.312-8.16S11.3 15.211 11.3 19.72c0 4.506 3.721 8.16 8.312 8.16Z" stroke="#FBF5EC" stroke-width="2.58" stroke-miterlimit="10"/><path d="M30.755 11.206c1.423-.094 2.496-1.392 2.396-2.9-.1-1.506-1.336-2.652-2.759-2.558-1.423.094-2.496 1.392-2.396 2.9.1 1.507 1.335 2.652 2.759 2.558Z" fill="#FBF5EC"/></g><defs><clipPath id="a"><path fill="#fff" d="M0 0h39v39H0z"/></clipPath></defs></svg>
